TV/Source/TCC - Dark.svg

<svg height="153.84pt" viewBox="0 0 378.24976 153.84" width="378.24976pt" xmlns="http://www.w3.org/2000/svg"><path d="m0 0h378.24976v22.95h-314.049759v130.89h-28.43025v-130.89h-35.769751z"/><path d="m146.62305 51.541016c-9.44.173333-19.13361 2.521146-26.62696 8.507812-6.85208 4.931934-11.78831 12.771453-11.94726 21.339844l-.01367-.00586v.359376 93.148432.35743l.01367-.00586c.15823 8.56915 5.09466 16.40948 11.94726 21.34179 7.49335 5.98667 17.18696 8.33253 26.62696 8.50586h108.14648c8.86667.12 18.17198-.76039 25.94531-5.40039 8.53334-4.78666 16.15951-12.97315 16.82618-23.14648v-33h-37.98438v17.44141c-1.57333 8.21333-10.3081 13.02544-18.13476 13.4121h-77.41211c-8.09335-.38666-17.30803-5.71851-18.05469-14.47851v-63.203126c.74666-8.76 9.96134-14.091849 18.05469-14.478516h77.41211c7.82666.386667 16.56143 5.198776 18.13476 13.41211v17.439452h37.98438v-32.999999c-.66667-10.173334-8.29284-18.359818-16.82618-23.146485-7.77333-4.64-17.07864-5.52039-25.94531-5.40039z" stroke-width="1.333333" transform="scale(.75000001)"/><path d="m264.35096 38.655391c-7.08.13-14.35021 1.89086-19.97022 6.38086-5.13906 3.69895-8.84123 9.57859-8.96044 16.00488l-.0103-.004v.26953 69.861329.26807l.0103-.005c.11867 6.42686 3.82099 12.30712 8.96044 16.00635 5.62001 4.49 12.89022 6.2494 19.97022 6.37939h81.10986c6.65.09 13.62898-.57029 19.45898-4.05029 6.40001-3.58999 12.11963-9.72986 12.61964-17.35986v-24.75043h-28.48829v13.08106c-1.18 6.16-7.73107 9.76908-13.60107 10.05907h-58.05908c-6.07001-.28999-12.98102-4.28888-13.54102-10.85888v-47.401709c.56-6.57 7.47101-10.56889 13.54102-10.85889h58.05908c5.87.29 12.42107 3.89908 13.60107 10.05909v13.07958h28.48829v-24.74999c-.50001-7.63001-6.21963-13.76987-12.61964-17.35987-5.83-3.48-12.80898-4.14029-19.45898-4.05029z"/></svg>

<?xml version="1.0" encoding="UTF-8" standalone="no"?>
<svg
   xmlns:dc="http://purl.org/dc/elements/1.1/"
   xmlns:cc="http://creativecommons.org/ns#"
   xmlns:rdf="http://www.w3.org/1999/02/22-rdf-syntax-ns#"
   xmlns:svg="http://www.w3.org/2000/svg"
   xmlns="http://www.w3.org/2000/svg"
   xmlns:sodipodi="http://sodipodi.sourceforge.net/DTD/sodipodi-0.dtd"
   xmlns:inkscape="http://www.inkscape.org/namespaces/inkscape"
   width="378.24976pt"
   height="153.84pt"
   viewBox="0 0 378.24976 153.84"
   version="1.1"
   id="svg12"
   sodipodi:docname="TCC - Dark.svg"
   inkscape:version="0.92.1 r15371">
  <metadata
     id="metadata18">
    <rdf:RDF>
      <cc:Work
         rdf:about="">
        <dc:format>image/svg+xml</dc:format>
        <dc:type
           rdf:resource="http://purl.org/dc/dcmitype/StillImage" />
        <dc:title />
      </cc:Work>
    </rdf:RDF>
  </metadata>
  <defs
     id="defs16" />
  <sodipodi:namedview
     pagecolor="#ffffff"
     bordercolor="#666666"
     borderopacity="1"
     objecttolerance="10"
     gridtolerance="10"
     guidetolerance="10"
     inkscape:pageopacity="0"
     inkscape:pageshadow="2"
     inkscape:window-width="1920"
     inkscape:window-height="1017"
     id="namedview14"
     showgrid="false"
     fit-margin-top="0"
     fit-margin-left="0"
     fit-margin-right="0"
     fit-margin-bottom="0"
     inkscape:zoom="1.065"
     inkscape:cx="280.21392"
     inkscape:cy="162.66604"
     inkscape:window-x="-8"
     inkscape:window-y="-8"
     inkscape:window-maximized="1"
     inkscape:current-layer="svg12" />
  <path
     sodipodi:nodetypes="ccccccccc"
     style="opacity:1;fill:#000000"
     inkscape:connector-curvature="0"
     id="path5"
     d="M 0,0 H 378.24976 V 22.95 H 64.200001 V 153.84 H 35.769751 V 22.95 H 0 Z" />
  <path
     style="opacity:1;fill:#000000;stroke-width:1.33333325"
     d="M 146.62305 51.541016 C 137.18305 51.714349 127.48944 54.062162 119.99609 60.048828 C 113.14401 64.980762 108.20778 72.820281 108.04883 81.388672 L 108.03516 81.382812 L 108.03516 81.742188 L 108.03516 174.89062 L 108.03516 175.24805 L 108.04883 175.24219 C 108.20706 183.81134 113.14349 191.65167 119.99609 196.58398 C 127.48944 202.57065 137.18305 204.91651 146.62305 205.08984 L 254.76953 205.08984 C 263.6362 205.20984 272.94151 204.32945 280.71484 199.68945 C 289.24818 194.90279 296.87435 186.7163 297.54102 176.54297 L 297.54102 143.54297 L 259.55664 143.54297 L 259.55664 160.98438 C 257.98331 169.19771 249.24854 174.00982 241.42188 174.39648 L 164.00977 174.39648 C 155.91642 174.00982 146.70174 168.67797 145.95508 159.91797 L 145.95508 96.714844 C 146.70174 87.954844 155.91642 82.622995 164.00977 82.236328 L 241.42188 82.236328 C 249.24854 82.622995 257.98331 87.435104 259.55664 95.648438 L 259.55664 113.08789 L 297.54102 113.08789 L 297.54102 80.087891 C 296.87435 69.914557 289.24818 61.728073 280.71484 56.941406 C 272.94151 52.301406 263.6362 51.421016 254.76953 51.541016 L 146.62305 51.541016 z "
     transform="scale(0.75000001)"
     id="path9-6" />
  <path
     inkscape:connector-curvature="0"
     style="opacity:1;fill:#000000;stroke-width:0.99999994"
     d="m 264.35096,38.655391 c -7.08,0.13 -14.35021,1.89086 -19.97022,6.38086 -5.13906,3.69895 -8.84123,9.57859 -8.96044,16.00488 l -0.0103,-0.004 v 0.26953 69.861329 0.26807 l 0.0103,-0.005 c 0.11867,6.42686 3.82099,12.30712 8.96044,16.00635 5.62001,4.49 12.89022,6.2494 19.97022,6.37939 h 81.10986 c 6.65,0.09 13.62898,-0.57029 19.45898,-4.05029 6.40001,-3.58999 12.11963,-9.72986 12.61964,-17.35986 v -24.75043 h -28.48829 v 13.08106 c -1.18,6.16 -7.73107,9.76908 -13.60107,10.05907 H 277.391 c -6.07001,-0.28999 -12.98102,-4.28888 -13.54102,-10.85888 V 72.535761 c 0.56,-6.57 7.47101,-10.56889 13.54102,-10.85889 h 58.05908 c 5.87,0.29 12.42107,3.89908 13.60107,10.05909 v 13.07958 h 28.48829 v -24.74999 c -0.50001,-7.63001 -6.21963,-13.76987 -12.61964,-17.35987 -5.83,-3.48 -12.80898,-4.14029 -19.45898,-4.05029 z"
     id="path9-6-8" />
</svg>
